X: 11
T:Lizard Candy
R:Reel
M:2/4
L:1/8
N:David Margolin, transcribed by Bruce Thomson
K:D
||f2e2|dBA2|Bd2B|AFDF|G2[G2B2]|AF3|[E3A3]F|[E3A3]e|
f2e2|dBA2|Bd2B|AFDF|G2[G2B2]|AFE2|D3E|D4:|
|:A,B,DE|F2A2|Bd2B|AFDF|G2[G2B2]|AF3|[E3A3]F|[E2A2]DB,|
A,B,DE|F2A2|Bd2B|AFDF|G2[G2B2]|AFE2|D3E|D4:|

